src/svg/uikit.svg

<svg height="1000" width="875.0" xmlns="http://www.w3.org/2000/svg">
    <path d="m867 250v500l-441.2 250-425.8-250v-418.6l171.1 88.1v228.5l260.7 147.5 265.3-147.5v-294.9l-197.5-112.5 171.1-103.7z m-264.3-154.1l-170.7 103.5-167.9-92.4 173-107z" />
  </svg>

<svg height="1000" width="875" xmlns="http://www.w3.org/2000/svg"><path d="M867 250v500l-441.2 250L0 750V331.4l171.1 88.1V648l260.7 147.5L697.1 648V353.1L499.6 240.6 670.7 136.9 867 250zM602.7 95.9L437.1 0l-173 107L432 199.4 602.7 95.9z"/></svg>
